X: 66
T: WILL THEY EVER RETURN?
B: O'Neill's 66
M: C
L: 1/8
Z: Transcribed by John Chambers <jc@trillian.mit.edu>
N: "Slow and mournful"
N: "Collected by J.O'Neill"
K:D
"f"A>F \
| (GFD).C D2((3ABc) | (dcA).G A2((3ABc) | "p"(dcAF) (G2EG) | "pp"F2D2 D2 :||
A2 \
| (d3e) (f2ec) | (dcAF) (GFDE) | (FGAB) ("p"c2Bc) | A6 ((3ABc) |
| "f".d.c.A.G A2(FA) | .G.F.D.B, C2(DE) | F3E D2D2 | D4- .D2 ||


